packages/symbols/svgs/duotone/translation-duotone.svg

<svg width="24" height="24" viewBox="0 0 24 24" fill="none" xmlns="http://www.w3.org/2000/svg">
<g clip-path="url(#clip0_1907_3210)">
<path opacity="0.5" fill-rule="evenodd" clip-rule="evenodd" d="M0.812193 0.812193C1.33223 0.292154 2.03755 0 2.773 0H11.227C11.9624 0 12.6678 0.292154 13.1878 0.812193C13.7078 1.33223 14 2.03755 14 2.773V6C14 6.55228 13.5523 7 13 7C12.4477 7 12 6.55228 12 6V2.773C12 2.56799 11.9186 2.37137 11.7736 2.22641C11.6286 2.08144 11.432 2 11.227 2H2.773C2.56799 2 2.37137 2.08144 2.22641 2.22641C2.08144 2.37137 2 2.56799 2 2.773V10.227C2 10.432 2.08144 10.6286 2.22641 10.7736C2.37137 10.9186 2.56799 11 2.773 11H3C3.55228 11 4 11.4477 4 12V12.1315L5.4453 11.1679C5.60957 11.0584 5.80258 11 6 11H8C8.55228 11 9 11.4477 9 12C9 12.5523 8.55228 13 8 13H6.30278L3.5547 14.8321C3.24784 15.0366 2.8533 15.0557 2.52814 14.8817C2.20298 14.7077 2 14.3688 2 14V12.8901C1.55517 12.761 1.1456 12.5212 0.812193 12.1878C0.292154 11.6678 0 10.9624 0 10.227V2.773C0 2.03755 0.292154 1.33223 0.812193 0.812193Z" fill="black"/>
<path fill-rule="evenodd" clip-rule="evenodd" d="M12.679 8.00061C12.6906 8.0002 12.7023 8 12.7139 8H21.2859L21.3209 8.00061C22.0556 8.02629 22.7501 8.34226 23.2522 8.87923C23.7503 9.41185 24.0187 10.1188 23.9999 10.8473V18.1527C24.0187 18.8812 23.7503 19.5882 23.2522 20.1208C22.9086 20.4882 22.475 20.7522 21.9999 20.8904V22C21.9999 22.3688 21.797 22.7077 21.4718 22.8817C21.1466 23.0557 20.7521 23.0366 20.4452 22.8321L17.6972 21H12.7139C12.7023 21 12.6906 20.9998 12.679 20.9994C11.9443 20.9737 11.2498 20.6577 10.7477 20.1208C10.2496 19.5882 9.98121 18.8812 9.99994 18.1527V10.8473C9.98121 10.1188 10.2496 9.41185 10.7477 8.87923C11.2498 8.34226 11.9443 8.02629 12.679 8.00061ZM19.9999 20.1315V20C19.9999 19.4477 20.4477 19 20.9999 19H21.2649C21.4653 18.9894 21.6541 18.9016 21.7914 18.7548C21.9319 18.6045 22.0071 18.4047 22.0005 18.1991C22.0001 18.1884 21.9999 18.1777 21.9999 18.167V10.833C21.9999 10.8223 22.0001 10.8116 22.0005 10.8009C22.0071 10.5953 21.9319 10.3955 21.7914 10.2452C21.6541 10.0984 21.4653 10.0106 21.2649 10H12.735C12.5346 10.0106 12.3458 10.0984 12.2085 10.2452C12.068 10.3955 11.9928 10.5953 11.9994 10.8009C11.9998 10.8116 11.9999 10.8223 11.9999 10.833V18.167C11.9999 18.1777 11.9998 18.1884 11.9994 18.1991C11.9928 18.4047 12.068 18.6045 12.2085 18.7548C12.3458 18.9016 12.5346 18.9894 12.735 19H17.9999C18.1974 19 18.3904 19.0584 18.5546 19.1679L19.9999 20.1315Z" fill="black"/>
<path d="M10.2869 5.11301C9.9789 5.08501 9.7059 5.07101 9.2869 5.07101C9.18761 5.54043 9.0276 5.99492 8.8109 6.42301C8.60361 6.83396 8.3423 7.21534 8.0339 7.55701C8.7728 7.9895 9.58731 8.27729 10.4339 8.40501C10.1341 8.79361 9.9 9.22871 9.7409 9.69301C8.78701 9.42382 7.88654 8.99253 7.0789 8.41801C6.23073 9.00463 5.28799 9.44099 4.2919 9.70801C4.14156 9.25861 3.91379 8.83895 3.6189 8.46801C4.49472 8.30918 5.33604 7.99851 6.1049 7.55001C5.75134 7.16326 5.44888 6.73274 5.2049 6.26901C5.0024 5.88699 4.84051 5.48479 4.7219 5.06901C4.3089 5.06901 4.0699 5.08301 3.7219 5.11101V3.84501C4.05931 3.88127 4.39856 3.89763 4.7379 3.89401H6.2799V3.47401C6.28132 3.32826 6.26724 3.18278 6.2379 3.04001H7.6459C7.61773 3.18059 7.60366 3.32363 7.6039 3.46701V3.89401H9.2709C9.61023 3.89779 9.9495 3.88143 10.2869 3.84501V5.11301ZM6.0629 5.07101C6.24387 5.71025 6.58099 6.29446 7.0439 6.77101C7.47004 6.28432 7.77046 5.70064 7.9189 5.07101H6.0629Z" fill="black"/>
<path d="M18.3689 17.451L18.0519 16.251H15.9649L15.6399 17.451H13.7329L15.8289 11H18.1449L20.2669 17.451H18.3689ZM17.6919 14.823L17.4149 13.769C17.3482 13.5343 17.2699 13.231 17.1799 12.859C17.0899 12.487 17.0292 12.2203 16.9979 12.059C16.9709 12.208 16.9189 12.459 16.8419 12.797C16.7649 13.135 16.5919 13.815 16.3249 14.823H17.6919Z" fill="black"/>
</g>
<defs>
<clipPath id="clip0_1907_3210">
<rect width="24" height="24" fill="white"/>
</clipPath>
</defs>
</svg>

<svg width="24" height="24" viewBox="0 0 24 24" xmlns="http://www.w3.org/2000/svg"><g clip-path="url(#a)"><path opacity=".5" fill-rule="evenodd" clip-rule="evenodd" d="M.812.812A2.773 2.773 0 0 1 2.773 0h8.454A2.773 2.773 0 0 1 14 2.773V6a1 1 0 1 1-2 0V2.773A.773.773 0 0 0 11.227 2H2.773A.773.773 0 0 0 2 2.773v7.454a.773.773 0 0 0 .773.773H3a1 1 0 0 1 1 1v.132l1.445-.964A1 1 0 0 1 6 11h2a1 1 0 1 1 0 2H6.303l-2.748 1.832A1 1 0 0 1 2 14v-1.11a2.773 2.773 0 0 1-2-2.663V2.773c0-.735.292-1.44.812-1.96Z"/><path fill-rule="evenodd" clip-rule="evenodd" d="M12.679 8a.99.99 0 0 1 .035 0h8.607A2.777 2.777 0 0 1 24 10.848v7.306a2.776 2.776 0 0 1-2 2.737V22a1 1 0 0 1-1.555.832L17.697 21H12.68A2.777 2.777 0 0 1 10 18.153v-7.306a2.777 2.777 0 0 1 2.68-2.846Zm7.32 12.131V20a1 1 0 0 1 1-1h.266a.777.777 0 0 0 .735-.833v-7.366a.777.777 0 0 0-.735-.801h-8.53a.777.777 0 0 0-.735.833v7.366a.777.777 0 0 0 .735.801H18a1 1 0 0 1 .555.168L20 20.13Z"/><path d="M10.287 5.113a10.17 10.17 0 0 0-1-.042c-.1.47-.26.924-.476 1.352a5.162 5.162 0 0 1-.777 1.134c.739.432 1.553.72 2.4.848-.3.389-.534.824-.693 1.288a8.641 8.641 0 0 1-2.662-1.275 8.993 8.993 0 0 1-2.787 1.29 4.05 4.05 0 0 0-.673-1.24 7.64 7.64 0 0 0 2.486-.918 6.126 6.126 0 0 1-.9-1.281 6.185 6.185 0 0 1-.483-1.2c-.413 0-.652.014-1 .042V3.845c.337.036.677.053 1.016.049H6.28v-.42a2.056 2.056 0 0 0-.042-.434h1.408c-.028.14-.042.284-.042.427v.427H9.27c.34.004.678-.013 1.016-.049v1.268Zm-4.224-.042c.18.64.518 1.223.98 1.7a3.96 3.96 0 0 0 .876-1.7H6.063Zm12.306 12.38-.317-1.2h-2.087l-.325 1.2h-1.907L15.829 11h2.316l2.122 6.451h-1.898Zm-.677-2.628-.277-1.054a24.71 24.71 0 0 1-.235-.91 22.1 22.1 0 0 1-.182-.8c-.027.149-.08.4-.156.738a74.12 74.12 0 0 1-.517 2.026h1.367Z"/></g><defs><clipPath id="a"><path fill="#fff" d="M0 0h24v24H0z"/></clipPath></defs></svg>
